Sources/FrostedUI/Resources/Icons.xcassets/twitch32.imageset/twitch-32.svg

<svg width="32" height="32" viewBox="0 0 32 32" fill="none" xmlns="http://www.w3.org/2000/svg" data-fui-icon="true">
  <path
    d="M5.63669 4L4 8.17401V24.868H9.99841V28H13.2732L16.5449 24.868H21.4536L28 18.6097V4H5.63669ZM7.81722 6.08566H25.8184V17.5642L21.9992 21.2168H16L12.7293 24.3447V21.2169H7.81722V6.08566ZM13.818 16.522H16V10.2619H13.818V16.522ZM19.8177 16.522H21.9993V10.2619H19.8177V16.522Z"
    fill="currentColor"
  />
</svg>

<svg xmlns="http://www.w3.org/2000/svg" width="32" height="32" fill="none" data-fui-icon="true" viewBox="0 0 32 32"><path fill="currentColor" d="M5.637 4 4 8.174v16.694h5.998V28h3.275l3.272-3.132h4.909L28 18.61V4zm2.18 2.086h18.001v11.478L22 21.217H16l-3.27 3.128v-3.128H7.816zm6.001 10.436H16v-6.26h-2.182zm6 0h2.181v-6.26h-2.181z"/></svg>
